!!!!SEGMENT: pl-kk--kk-i-1--007-003_anonim--missa-mater-matris-patrem.krn
!!!cenid: 15xx:685
!!!COM: Anonim
!!!COM-rismID: pe30004985
!!!CDT:
!!!CNT:
!!!OPR: Missa Mater matris
!!!OTL: Patrem
!!!OMV: 003
!!!PDT:
!!!AGN:
!!!YEC: Copyright 2022 Narodowy Instytut Fryderyka Chopina (https://polishscores.org)
!!!YEM: License CC-BY-4.0 (https://creativecommons.org/licenses/by/4.0)
!!!SMS-siglum: PL-Kk
!!!SMS-shelfmark: Kk.I.1
!!!SMS-shelfwork: 007-003 M
!!!SMS-variant:
!!!SMS-altvar:
!!!NIFC-rismSourceID: 300257954
!!!NIFC-rismChildID: 300257961
!!!NIFC-islandoraID: pl-kk:1
!!!URL-pdf-islandora: https://repozytorium.nifc.pl/islandora/object/pl-kk%3A1/datastream/PDF/view
!!!URL-scan: https://polish.musicsources.pl/pl/lokalizacje/galeria/rekopisy/5736 @EN{Scan on Polish Music Sources Website} @PL{Skany w portalu Dziedzictwo Muzyki Polskiej w otwartym dostępie}
!!!IIIF: https://repozytorium.nifc.pl/islandora/object/pl-kk%3A1/datastream/IIIF/view
!!!ONB-nifc: UWAGA: Cantus (s. 52v-59r, skan 0055-0061), Altus (s. 52v-59v, skan 0245-0252), Tenor (s. 51r-58r, skan 0439-0446), Bassus (s. 51r-58r, skan 0612-0619). Części Mszy: 1. Kyrie, 2. Et in terra, 3. Patrem, 4. Sanctus, 5. Agnus Dei
!!!AIN: 1 alto 1 bass 1 soprn 1 tenor
!!!key:
**kern	**text	**kern	**text	**kern	**text	**kern	**text
*part4	*	*part3	*	*part2	*	*part1	*
*staff4	*	*staff3	*	*staff2	*	*staff1	*
*I"BASSVS	*	*I"TENOR	*	*I"ALTVS	*	*I"CANTVS	*
*I'B	*	*I'T	*	*I'A	*	*I'C	*
*Ibass	*	*Itenor	*	*Ialto	*	*Isoprn	*
*ICvox	*	*ICvox	*	*ICvox	*	*ICvox	*
*clefF4	*	*clefC4	*	*clefC3	*	*clefC3	*
*k[b-]	*	*k[b-]	*	*k[b-]	*	*k[b-]	*
*d:	*	*d:	*	*d:	*	*d:	*
*M2/1	*	*M2/1	*	*M2/1	*	*M2/1	*
*met(C|)	*	*met(C|)	*	*met(C|)	*	*met(C|)	*
=1-	=1-	=1-	=1-	=1-	=1-	=1-	=1-
*xywh-#615:1336,2130,4300,796	*	*xywh-#442:5968,666,4489,886	*	*xywh-#247:5712,2626,4574,1093	*	*xywh-#57:5740,2716,4630,1049	*
*all\right	*	*all\right	*	*all\right	*	*all\right	*
00r	.	0G/	pa-	00r	.	00r	.
=2-	=2-	=2-	=2-	=2-	=2-	=2-	=2-
.	.	1G/	-trem	.	.	.	.
.	.	1F/	om-	.	.	.	.
=3-	=3-	=3-	=3-	=3-	=3-	=3-	=3-
00r	.	1.B-\	-ni-	0G/	pa-	1.d\	pa-
.	.	2G/	-po-	.	.	1B-/	-trem
=4-	=4-	=4-	=4-	=4-	=4-	=4-	=4-
.	.	1B-\	-ten-	1G/	-trem	.	.
.	.	.	.	.	.	2G/	.
.	.	1c\	-te(m)	1F/	.	1A/	.
=5-	=5-	=5-	=5-	=5-	=5-	=5-	=5-
*	*	*2\right	*	*	*	*	*
00r	.	2d\	.	1.B-/	om-	2G/	.
.	.	2.G/	.	.	.	1g\	om-
.	.	4A/	.	.	.	.	.
*	*	*	*	*	*	*2\right	*
.	.	2.B-/	.	2G/	-ni-	2g\	-ni-
=6-	=6-	=6-	=6-	=6-	=6-	=6-	=6-
.	.	.	.	1B-/	-po-	1d\	-po-
.	.	4A/	.	.	.	.	.
.	.	4G/	.	.	.	.	.
.	.	4F/	.	.	.	.	.
.	.	1E/	.	1c\	-ten-	1g\	-ten-
=7-	=7-	=7-	=7-	=7-	=7-	=7-	=7-
1r	.	1D/	.	0d\	-te(m)	1f\	-te(m)
2r	.	1r	.	.	.	00r	.
*2\right	*	*	*	*	*	*	*
2G\	fac-	.	.	.	.	.	.
=8-	=8-	=8-	=8-	=8-	=8-	=8-	=8-
2G\	-to-	2r	.	2r	.	.	.
*	*	*custos:d	*	*	*	*	*
2G\	-rem	2d\	fa-	2B-/	fac-	.	.
*	*	*xywh-#442:5957,1360,4535,897	*	*	*	*	*
!	!	!LO:LB:g=original	!	!	!	!	!
2F\	ce-	2d\	-cto-	2A/	-to-	.	.
2G\	-li	2d\	-rem	1B-/	-rem	.	.
=9-	=9-	=9-	=9-	=9-	=9-	=9-	=9-
2.D/	et	2.d\	ce-	.	.	.	.
.	.	.	.	4F/	.	.	.
4E\	.	4c\	-li	4G/	ce-	.	.
4F\	.	2d\	et	4A/	.	00r	.
4G\	.	.	.	4B-/	.	.	.
1A\	ter-	2.c\	ter-	1c\	-li	.	.
=10-	=10-	=10-	=10-	=10-	=10-	=10-	=10-
.	.	.	.	.	.	.	.
.	.	4B-/	-re	.	.	.	.
*	*	*	*	*custos:c	*	*	*
1G\	-re	4A/	.	2c/	et	.	.
.	.	4G/	.	.	.	.	.
*	*	*	*	*xywh-#248:1136,575,4388,862	*	*	*
!	!	!	!	!LO:PB:g=original	!	!	!
.	.	1A\	.	1c\	ter-	.	.
2F\	.	.	.	.	.	.	.
=11-	=11-	=11-	=11-	=11-	=11-	=11-	=11-
1G\	.	1G/	.	1B-/	-re	.	.
2.C/	vi-	2r	.	2r	.	00r	.
.	.	1E/	vi-	1G/	vi-	.	.
*custos:C	*	*	*	*	*	*	*
4C/	-si-	.	.	.	.	.	.
!LO:LB:g=original	!	!	!	!	!	!	!
=12-	=12-	=12-	=12-	=12-	=12-	=12-	=12-
*xywh-#615:1204,2841,4449,900	*	*	*	*	*	*	*
2C/	-bi-	.	.	.	.	.	.
2AA/	-li-	2F/	-ſi-	2A/	-ſi-	.	.
2GG/	-u(m)	2G/	-bi-	2B-/	-bi-	.	.
1G\	o-	2G/	-li-	2B-/	-li-	.	.
=13-	=13-	=13-	=13-	=13-	=13-	=13-	=13-
.	.	0A\	-u(m)	1c\	-u(m)	.	.
4F\	.	.	.	.	.	.	.
4E\	.	.	.	.	.	.	.
2F\	.	.	.	1c\	om-	00r	.
2A\	.	.	.	.	.	.	.
=14-	=14-	=14-	=14-	=14-	=14-	=14-	=14-
2G\	.	2B-\	om-	2B-/	-ni-	.	.
2F\	-mni-	2.c\	-ni-	2A/	-u(m)	.	.
1E\	-u(m)	.	.	1G/	.	.	.
.	.	4B-/	-um	.	.	.	.
.	.	2G/	.	.	.	.	.
=15-	=15-	=15-	=15-	=15-	=15-	=15-	=15-
1D\	.	1A\	.	2.F/	.	.	.
.	.	.	.	4E/	.	.	.
*lig	*	*	*	*	*	*lig	*
*	*	*custos:A	*	*	*	*	*
1D\	et	2r	.	2D/	.	1f\	et
*	*	*	*	*2\right	*	*	*
*	*	*xywh-#442:5939,2106,4594,927	*	*	*	*	*
!	!	!LO:LB:g=original	!	!	!	!	!
.	.	2A/	et	2d\	et	.	.
=16-	=16-	=16-	=16-	=16-	=16-	=16-	=16-
1C/	.	1c\	in-	1e\	in-	1g\	.
*Xlig	*	*	*	*	*	*Xlig	*
1D\	in-	2A/	-vi-	2d\	-vi-	2f\	in-
.	.	2F/	-ſi-	2B-/	-ſi-	2d/	-vi-
=17-	=17-	=17-	=17-	=17-	=17-	=17-	=17-
*	*	*	*	*	*	*custos:f	*
2C/	-vi-	2G/	-bi-	2c/	-bi-	2e\	-ſi-
*	*	*	*	*	*	*xywh-#58:1253,582,4204,846	*
!	!	!	!	!	!	!LO:PB:g=original	!
2BB-/	-ſi-	2B-/	-li-	2.d/	-li-	2.f\	-bi-
1C/	-bi-	2A/	-um	.	.	.	.
.	.	.	.	4c/	-u(m)	4e\	-li-
.	.	2G/	.	2.c/	.	2.e\	-um
=18-	=18-	=18-	=18-	=18-	=18-	=18-	=18-
1AA/	-li-	2A/	.	.	.	.	.
*	*	*	*	*custos:c	*	*	*
.	.	.	.	4B-/	.	4d/	.
*	*	*	*	*xywh-#248:1214,1386,4310,778	*	*	*
!	!	!	!	!LO:LB:g=original	!	!	!
.	.	2E/	.	4c/	.	4e/	.
.	.	.	.	4A/	.	4c/	.
1GG/	-u(m)	1G/	.	1B-/	.	1d\	.
=19-	=19-	=19-	=19-	=19-	=19-	=19-	=19-
1r	.	1r	.	1r	.	1r	.
1.GG/	et	1.D/	et	1.G/	et	1.B-/	et
=20-	=20-	=20-	=20-	=20-	=20-	=20-	=20-
.	.	.	.	.	.	.	.
*custos:BB-	*	*	*	*	*	*	*
2GG/	in	2D/	in	2G/	in	2B-/	in
*xywh-#615:5613,478,4598,1009	*	*	*	*	*	*	*
!LO:PB:g=original	!	!	!	!	!	!	!
1BB-/	v-	1D/	v-	1G/	v-	1B-/	v-
=21-	=21-	=21-	=21-	=21-	=21-	=21-	=21-
1AA/	-nu(m)	1E/	-nu(m)	1A/	-nu(m)	1c\	-nu(m)
1D\	do-	1F/	do-	1B-/	do-	1d\	do-
=22-	=22-	=22-	=22-	=22-	=22-	=22-	=22-
1C/	-mi-	1G/	-mi-	1c\	-mi-	1e\	-mi-
1.F\	-nu(m)	1.A\	-(num)	1.d\	-nu(m)	1.f\	-(num)
=23-	=23-	=23-	=23-	=23-	=23-	=23-	=23-
.	.	.	.	.	.	.	.
2D/	Je-	2A/	Je-	2d/	Je-	2f\	Je-
2F/	-ſum	1A\	-ſum	1d\	-ſum	1f\	-ſum
2D/	.	.	.	.	.	.	.
=24-	=24-	=24-	=24-	=24-	=24-	=24-	=24-
*	*	*custos:A	*	*	*	*	*
1E\	Chr(i-	1G/	Chri-	1c\	chr(i-	1e\	chr(i-
*	*	*xywh-#442:5922,2847,4588,961	*	*	*	*	*
!	!	!LO:LB:g=original	!	!	!	!	!
0D\	-stu)m	1A\	-ſtu(m)	1d\	-stu)m	1f\	-stu)m
=25-	=25-	=25-	=25-	=25-	=25-	=25-	=25-
.	.	2r	.	2r	.	00r	.
.	.	2F/	fi-	2d/	fi-	.	.
2G\	fi-	2G/	-li-	2B-/	-li-	.	.
2E\	-li-	2G/	-um	2c/	-u(m)	.	.
=26-	=26-	=26-	=26-	=26-	=26-	=26-	=26-
2F\	-um	2A/	de-	2d/	de-	.	.
2G\	de-	2B-/	-i	2G/	-i	.	.
2C/	-i	2G/	v-	2.c/	v-	.	.
2.F\	v-	2A/	-ni-	.	.	.	.
.	.	.	.	4B-/	.	.	.
=27-	=27-	=27-	=27-	=27-	=27-	=27-	=27-
.	.	2.F/	-ge-	4A/	.	00r	.
*	*	*	*	*custos:A	*	*	*
4E/	.	.	.	4G/	.	.	.
*	*	*	*	*xywh-#248:1198,2114,4298,766	*	*	*
!	!	!	!	!LO:LB:g=original	!	!	!
4D/	.	.	.	2.A/	-ni-	.	.
4C/	.	4E/	.	.	.	.	.
2BB-/	-ni-	2D/	.	.	.	.	.
.	.	.	.	4G/	-ge-	.	.
2C/	-ge-	2C/	.	1G/	-ni-	.	.
=28-	=28-	=28-	=28-	=28-	=28-	=28-	=28-
1AA/	-ni-	1.c\	.	.	.	.	.
.	.	.	.	2F/	-tum	.	.
*custos:G	*	*	*	*	*	*	*
2GG/	-tu(m)	.	.	1G/	.	.	.
*xywh-#615:5642,1183,4667,934	*	*	*	*	*	*	*
!LO:LB:g=original	!	!	!	!	!	!	!
1G\	.	1B-\	-ni-	.	.	.	.
=29-	=29-	=29-	=29-	=29-	=29-	=29-	=29-
.	.	.	.	1r	.	1r	.
4F\	.	4A/	-tu(m)	.	.	.	.
4E\	.	4G/	.	.	.	.	.
*	*	*	*	*	*	*custos:f	*
1D\	.	2A/	et	1d\	et	1f\	et
.	.	2A/	ex	.	.	.	.
!	!	!	!	!	!	!LO:LB:g=original	!
*	*	*	*	*	*	*clefC2	*
=30-	=30-	=30-	=30-	=30-	=30-	=30-	=30-
*	*	*	*	*	*	*xywh-#58:1172,1302,4411,881	*
2D/	et	1A\	.	1d\	ex	1f\	ex
2D/	ex	.	.	.	.	.	.
1F\	pa-	1A\	pa-	1d\	pa-	1f\	pa-
=31-	=31-	=31-	=31-	=31-	=31-	=31-	=31-
*	*	*custos:c	*	*	*	*	*
1E\	-tre	1Bn\	-tre	1e\	-tre	1g\	-tre
*	*	*xywh-#443:1261,496,4433,887	*	*	*	*	*
!	!	!LO:PB:g=original	!	!	!	!	!
1A\	na-	1c\	na-	1f\	na-	1a\	na-
=32-	=32-	=32-	=32-	=32-	=32-	=32-	=32-
0G\	-tu(m)	0d\	-tu(m)	0g\	-tu(m)	0b-\	-tu(m)
=33-	=33-	=33-	=33-	=33-	=33-	=33-	=33-
1G\	an-	1d\	an-	1g\	an-	1b-\	an-
1.B-\	-te	1d\	-te	1g\	-te	1b-\	-te
=34-	=34-	=34-	=34-	=34-	=34-	=34-	=34-
.	.	1d\	om-	1g\	om-	1b-\	om-
2B-\	o-	.	.	.	.	.	.
1.F\	-mni-	1.c\	-ni-	1.f\	-ni-	1.a\	-ni-
=35-	=35-	=35-	=35-	=35-	=35-	=35-	=35-
.	.	.	.	.	.	.	.
2G\	-a	2B-y/	-a	2e\	-a	2g\	-a
1D\	Se-	1A\	ſe-	1d\	ſe-	1f\	se-
=36-	=36-	=36-	=36-	=36-	=36-	=36-	=36-
1E-X\	-cu-	1G/	-cu-	1c\	-cu-	1e\	-cu-
0D\	-la	1A\	-la	1d\	-la	1f\	-la
=37-	=37-	=37-	=37-	=37-	=37-	=37-	=37-
.	.	1r	.	2r	.	2r	.
.	.	.	.	2f\	de-	2a\	de-
*	*	*	*	*custos:e	*	*	*
00r	.	2r	.	1g\	-um	1b-\	-u(m)
.	.	2G/	de-	.	.	.	.
!	!	!	!	!LO:LB:g=original	!	!	!
=38-	=38-	=38-	=38-	=38-	=38-	=38-	=38-
*	*	*	*	*xywh-#248:1276,2842,4259,800	*	*	*
.	.	1c\	-u(m)	1e\	de	1g\	de
.	.	1A\	de	1f\	de-	1a\	de-
=39-	=39-	=39-	=39-	=39-	=39-	=39-	=39-
.	.	1B-\	de-	1d\	-o	1f\	-o
00r	.	1G/	-o	2r	.	2r	.
.	.	.	.	2g\	lu-	2b-\	lu-
=40-	=40-	=40-	=40-	=40-	=40-	=40-	=40-
.	.	1r	.	2.a\	-men	2.cc\	-m(en)
*	*	*	*	*	*	*custos:a	*
.	.	.	.	4g\	de	4b-\	de
*	*	*	*	*	*	*xywh-#58:1230,2028,4365,898	*
!	!	!	!	!	!	!LO:LB:g=original	!
.	.	2r	.	2f\	lu-	2a\	lu-
.	.	2c\	lu-	2e\	-mi-	2g\	-mi-
=41-	=41-	=41-	=41-	=41-	=41-	=41-	=41-
.	.	2.d\	-m(en)	1d\	-ne	1f\	-ne
.	.	4c\	de	.	.	.	.
0r	.	2B-/	lu-	2r	.	2r	.
.	.	2A/	-mi-	2f\	de-	2a\	de-
=42-	=42-	=42-	=42-	=42-	=42-	=42-	=42-
.	.	1G/	-ne	1g\	-um	1b-\	-um
*	*	*custos:c	*	*	*	*	*
2r	.	2r	.	1e\	ve-	1g\	ve-
*	*	*xywh-#443:1255,1247,4393,853	*	*	*	*	*
!LO:SIC:v:o=2D/	!LO:PB:g=original	!	!	!	!	!	!
2C/	de-	2c\	de-	.	.	.	.
=43-	=43-	=43-	=43-	=43-	=43-	=43-	=43-
*custos:E	*	*	*	*	*	*	*
1F\	-um	2c\	-um	2f\	-rum	2a\	-ru(m)
.	.	2A/	ve-	2d\	de	2f/	de
*xywh-#615:5671,1934,4667,923	*	*	*	*	*	*	*
!LO:LB:g=original	!	!	!	!	!	!	!
2Eny/	ve-	2G/	-ru(m)	2e\	de-	2g\	de-
2.D/	-ru(m)	2d\	.	2.f\	-o	2.a\	-o
=44-	=44-	=44-	=44-	=44-	=44-	=44-	=44-
.	.	2.d\	de	.	.	.	.
4E\	de	.	.	4e\	ve-	4g/	.
2F\	de-	.	.	1d\	-ro	4f/	.
.	.	4c/	de-	.	.	4e/	.
2G\	-o	2B-/	-o	.	.	2d/	.
2E/	ve-	2G/	ve-	2c/	.	1g\	ve-
=45-	=45-	=45-	=45-	=45-	=45-	=45-	=45-
1D\	-ro	1A\	-ro	1d\	.	.	.
.	.	.	.	.	.	2f/	-ro
1GG/	.	1G/	.	1d\	.	1g\	.
=46-	=46-	=46-	=46-	=46-	=46-	=46-	=46-
*	*	*	*	*custos:B-	*	*	*
1.BB-/	ge-	2r	.	2r	.	2r	.
*	*	*	*	*xywh-#248:5703,586,4388,878	*	*	*
!	!	!	!	!LO:PB:g=original	!	!	!
.	.	1F/	ge-	1B-/	ge-	1d/	ge-
2BB-/	-ni-	2F/	-ni-	2B-/	-ni-	2d/	-ni-
=47-	=47-	=47-	=47-	=47-	=47-	=47-	=47-
2D/	-tu(m)	2F/	-tu(m)	2B-/	-tum	2d/	-tu(m)
2D/	no(n)	2F/	non	2B-/	no(n)	2d/	no(n)
*	*	*	*	*	*	*custos:c	*
1.C/	fa-	1G/	fac-	1c\	fac-	1e\	fa-
!	!	!	!	!	!	!LO:LB:g=original	!
*	*	*	*	*	*	*clefC3	*
=48-	=48-	=48-	=48-	=48-	=48-	=48-	=48-
*	*	*	*	*	*	*xywh-#58:1247,2891,4353,840	*
.	.	1E/	-tu(m)	1A/	-tu(m)	1c\	-ctu(m)
4BB-/	.	.	.	.	.	.	.
4AA/	.	.	.	.	.	.	.
2AA/	-ctu(m)	2r	.	2r	.	2r	.
2AA/	con-	2E/	con-	2A/	con-	2c/	con-
=49-	=49-	=49-	=49-	=49-	=49-	=49-	=49-
2D/	-ſub-	2F/	-ſub-	2B-/	.	2d/	-ſub-
2C/	.	2G/	-ſta(n)-	2c/	-ſub-	2e\	-ſtan-
2F\	-ſtan-	1.A\	-ci-	1.d\	-sta(n)-	1.f\	-ti-
2D/	-ci-	.	.	.	.	.	.
=50-	=50-	=50-	=50-	=50-	=50-	=50-	=50-
2F\	-a-	.	.	.	.	.	.
*custos:D	*	*custos:F	*	*	*	*	*
2C/	-lem	2G/	-a-	2c/	-ci-	2e\	-a-
*xywh-#615:5694,2588,4609,1077	*	*xywh-#443:1295,2003,4358,882	*	*	*	*	*
!LO:LB:g=original	!	!LO:LB:g=original	!	!	!	!	!
2D/	.	2F/	-lem	2B-/	-a-	2d/	-lem
2AA/	pa-	2E/	.	2A/	-lem	2c/	.
=51-	=51-	=51-	=51-	=51-	=51-	=51-	=51-
1BB-/	-tri	1D/	pa-	1G/	pa-	1B-/	pa-
1AA/	.	1E/	-tri	1A/	-tri	1c\	-tri
=52-	=52-	=52-	=52-	=52-	=52-	=52-	=52-
1D\	per	2r	.	2r	.	2r	.
.	.	1F/	per	1B-/	per	1d\	per
2D/	.	.	.	.	.	.	.
2D/	que(m)	2F/	que(m)	2B-/	que(m)	2d/	quem
=53-	=53-	=53-	=53-	=53-	=53-	=53-	=53-
2BB-/	om-	2F/	om-	2B-/	om-	2d/	o(m-
2D/	-ni-	2F/	-ni-	2B-/	-(n)i-	2d/	-n)i-
1.C/	-a	2.G/	-a	2.c/	-a	2.e\	-a
.	.	4F/	.	4B-/	.	4d/	.
=54-	=54-	=54-	=54-	=54-	=54-	=54-	=54-
.	.	4E/	.	4A/	.	4c/	.
*	*	*	*	*custos:A	*	*	*
.	.	4D/	.	4G/	.	4B-/	.
*	*	*	*	*xywh-#248:5692,1330,4545,873	*	*	*
!	!	!	!	!LO:LB:g=original	!	!	!
2AA/	fac-	2.E/	fac-	2.A/	fac-	2.c/	fac-
2C/	-ta	.	.	.	.	.	.
.	.	4D/	-ta	4G/	-ta	4B-/	-ta
4GG/	.	1D/	sunt	1G/	sunt	1B-/	.
4AA/	Sunt	.	.	.	.	.	.
=55-	=55-	=55-	=55-	=55-	=55-	=55-	=55-
4BB-/	.	.	.	.	.	.	.
4GG/	.	.	.	.	.	.	.
*	*	*	*	*	*	*custos:B-	*
2AA/	.	2C/	.	2F/	.	2A/	.
*	*	*	*	*	*	*xywh-#58:5871,582,4422,892	*
!	!	!	!	!	!	!LO:PB:g=original	!
0GG/	.	1D/	.	1G/	.	1B-/	s(u)nt
=56-	=56-	=56-	=56-	=56-	=56-	=56-	=56-
.	.	00r	.	1r	.	1r	.
2r	.	.	.	2A/	qui	1F/	qui
2D/	qui	.	.	2B-/	prop-	.	.
=57-	=57-	=57-	=57-	=57-	=57-	=57-	=57-
2E/	prop-	.	.	2c/	-t(er)	2G/	prop-
2F\	-t(er)	.	.	2A/	nos	2A/	-t(er)
2D/	nos	.	.	2B-/	ho-	2F/	nos
*custos:F	*	*	*	*	*	*	*
2E/	ho-	.	.	2c/	-(m)i-	2G/	ho-
!LO:PB:g=original	!	!	!	!	!	!	!
=58-	=58-	=58-	=58-	=58-	=58-	=58-	=58-
*xywh-#616:1088,532,4461,878	*	*	*	*	*	*	*
2F\	-mi-	00r	.	2d/	-(n)es	2A/	-(m)i-
2G\	-nes	.	.	2B-/	et	2B-/	-(n)es
2E\	et	.	.	2c/	prop-	2G/	et
2F\	prop-	.	.	2d/	-t(er)	2A/	prop-
=59-	=59-	=59-	=59-	=59-	=59-	=59-	=59-
2G\	-t(er)	.	.	2e/	n(os-	2B-/	-t(er)
2A\	noſ-	.	.	2c/	-t)ra(m)	2c/	n(os-
2F\	-tram	.	.	2d\	ſa-	2A/	-t)ra(m)
2G\	ſa-	.	.	2e\	-lu-	2B-/	ſa-
=60-	=60-	=60-	=60-	=60-	=60-	=60-	=60-
2A\	-lu-	00r	.	2f\	-te(m)	2c/	-lu-
2B-\	-tem	.	.	2d\	de-	2d/	-te(m)
2G\	de-	.	.	2.g\	-ſcen-	2B-/	de-
2.c\	-ſcen-	.	.	.	.	1c\	-ſcen-
.	.	.	.	4f\	.	.	.
=61-	=61-	=61-	=61-	=61-	=61-	=61-	=61-
.	.	.	.	4e\	.	.	.
*	*	*	*	*custos:c	*	*	*
4B-/	-dit	.	.	4d\	.	.	.
*	*	*	*	*xywh-#248:5715,2131,4545,811	*	*	*
!	!	!	!	!LO:LB:g=original	!	!	!
4A/	.	.	.	4c/	.	2c/	-dit
4G/	.	.	.	4B-/	.	.	.
4F/	.	.	.	4A/	.	2c/	de
4E/	.	.	.	4G/	.	.	.
4D/	.	.	.	4F/	.	1d\	ce-
4C/	.	.	.	4E/	.	.	.
=62-	=62-	=62-	=62-	=62-	=62-	=62-	=62-
4BB-/	.	0r	.	2D/	-dit	.	.
4AA/	.	.	.	.	.	.	.
2GG/	de	.	.	1G/	de	2B-/	.
1AA/	ce-	.	.	.	.	1c\	-lis
.	.	.	.	2F/	ce-	.	.
=63-	=63-	=63-	=63-	=63-	=63-	=63-	=63-
*custos:G	*	*	*	*	*	*custos:b-	*
1GG/	-lis	1r	.	1G/	-lis	1B-/	.
*xywh-#616:987,1382,4607,839	*	*	*	*	*	*	*
!LO:LB:g=original	!	!	!	!	!	!	!
1G\	et	2r	.	2r	.	2r	.
*	*	*	*	*	*	*xywh-#58:5826,1348,4474,869	*
!	!	!	!	!	!	!LO:LB:g=original	!
*	*	*	*	*	*	*clefC2	*
.	.	2d\	et	2g\	et	2b-\	et
=64-	=64-	=64-	=64-	=64-	=64-	=64-	=64-
2B-\	in-	2d\	in-	2g\	in-	2b-\	in-
2B-\	-car-	2d\	-car-	2g\	-car-	2b-\	-car-
*	*	*custos:B-	*	*	*	*	*
1F\	-na-	1c\	-na-	1f\	-na-	1a\	-na-
!	!	!LO:LB:g=original	!	!	!	!	!
=65-	=65-	=65-	=65-	=65-	=65-	=65-	=65-
*	*	*xywh-#443:1295,2816,4335,784	*	*	*	*	*
1G\	-tus	1B-\	-tus	1e\	-tus	1g\	-tus
1D\	eſt	1A\	eſt	1d\	eſt	1f\	eſt
=66-	=66-	=66-	=66-	=66-	=66-	=66-	=66-
2r	.	2r	.	2r	.	2r	.
2D/	de	2A/	de	2d/	de	2f/	de
2F\	Sp(i-	2A/	Spi-	2d/	Sp(i-	2f/	Spi-
2F\	-ri-	2A/	-r(i-	2d/	-ri-	2f/	-(ri-
=67-	=67-	=67-	=67-	=67-	=67-	=67-	=67-
1C/	-t)u	1G/	-tu)	1c\	-t)u	1e\	-tu)
1D\	ſan-	1F/	San-	1B-/	San-	1d/	San-
=68-	=68-	=68-	=68-	=68-	=68-	=68-	=68-
1AA/	-cto	1E/	-cto	1A/	-cto	1c/	-cto
*	*	*	*	*custos:A	*	*	*
1.C/	ex	2r	.	2r	.	2r	.
*	*	*	*	*xywh-#248:5642,2797,4567,1181	*	*	*
!	!	!	!	!LO:LB:g=original	!	!	!
.	.	1E/	ex	1A/	ex	1c/	ex
=69-	=69-	=69-	=69-	=69-	=69-	=69-	=69-
.	.	.	.	.	.	.	.
2AA/	ma-	2E/	ma-	2A/	ma-	2c/	ma-
2D/	-ri-	2F/	-ri-	2B-/	-ri-	2d/	-ri-
2AA/	-a	2E/	-a	2A/	-a	2c/	-a
=70-	=70-	=70-	=70-	=70-	=70-	=70-	=70-
1D\	vir-	1F/	Vir-	1B-/	vir-	1d/	vir-
1.C/	-gi-	1G/	-gi-	1c\	-gi-	1e\	-gi-
=71-	=71-	=71-	=71-	=71-	=71-	=71-	=71-
.	.	1E/	-ne	1A/	-ne	1c/	-ne
4BB-/	.	.	.	.	.	.	.
4AA/	.	.	.	.	.	.	.
2AA/	-ne	2r	.	2r	.	2r	.
2AA/	et	2E/	et	2A/	et	2c/	et
=72-	=72-	=72-	=72-	=72-	=72-	=72-	=72-
*custos:AA	*	*	*	*	*	*	*
2D/	ho-	2F/	ho-	2B-/	ho-	2d/	ho-
*	*	*	*	*	*	*custos:d	*
*xywh-#616:964,2165,4607,861	*	*	*	*	*	*	*
!LO:LB:g=original	!	!	!	!	!	!	!
2AA/	-mo	2E/	-mo	2A/	-mo	2c/	-mo.
*	*	*	*	*	*	*xywh-#58:5820,2103,4538,886	*
!	!	!	!	!	!	!LO:LB:g=original	!
*	*	*	*	*	*	*clefC3	*
2D/	fac-	2F/	fac-	2B-/	fac-	2d/	fac-
2.C/	-tus	2G/	-t(us)	2c/	-tus	2e/	-tus
=73-	=73-	=73-	=73-	=73-	=73-	=73-	=73-
.	.	1E/	e(st)	1A/	e(st)	1c\	eſt
4BB-/	.	.	.	.	.	.	.
4C/	.	.	.	.	.	.	.
4AA/	.	.	.	.	.	.	.
2AA/	eſt	2r	.	2r	.	2r	.
*	*ij	*	*ij	*	*ij	*	*
2AA/	et	2E/	et	2A/	et	2c/	et
=74-	=74-	=74-	=74-	=74-	=74-	=74-	=74-
2D/	ho-	2F/	ho-	2B-/	ho-	2d/	ho-
*	*	*custos:F	*	*	*	*	*
2AA/	-mo	2E/	-mo	2A/	-mo	2c/	-mo
*	*	*xywh-#443:5907,554,4513,996	*	*	*	*	*
!	!	!LO:PB:g=original	!	!	!	!	!
2D/	fac-	2F/	fac-	2B-/	fac-	2d/	fac-
2.C/	.	2G/	-t(us)	2c/	-tus	2e/	-tus
=75-	=75-	=75-	=75-	=75-	=75-	=75-	=75-
*	*	*	*	*custos:G	*	*	*
.	.	00E\	e(st)	00A\	e(st)	00c\	eſt
*	*	*	*Xij	*	*Xij	*	*
4BB-/	.	.	.	.	.	.	.
4C/	.	.	.	.	.	.	.
4AA/	.	.	.	.	.	.	.
2C/	.	.	.	.	.	.	.
2AA/	-tus	.	.	.	.	.	.
=76-	=76-	=76-	=76-	=76-	=76-	=76-	=76-
0AA\l	eſt	.	.	.	.	.	.
*	*Xij	*	*	*	*	*	*
!LO:LB:g=original	!	!	!	!LO:PB:g=original	!	!	!
=77-	=77-	=77-	=77-	=77-	=77-	=77-	=77-
*xywh-#616:1026,2835,4619,833	*	*	*	*xywh-#249:1334,523,4335,834	*	*	*
1r	.	1G/	Cru-	00r	.	1g\	Cru-
1C/	Cru-	2G/	-ci-	.	.	2g\	-ci-
.	.	1G/	-fi-	.	.	1e\	-fi-
=78-	=78-	=78-	=78-	=78-	=78-	=78-	=78-
2C/	-ci-	.	.	.	.	.	.
1C/	-fi-	4F/	-xus	.	.	4d/	-xus
.	.	4E/	.	.	.	4c/	.
.	.	1E/	.	.	.	1c\	.
4BB-/	.	.	.	.	.	.	.
4AA/	.	.	.	.	.	.	.
=79-	=79-	=79-	=79-	=79-	=79-	=79-	=79-
1AA/	-xus	2r	.	00r	.	2r	.
.	.	2F/	e-	.	.	2c/	e-
2BB-/	e-	2D/	-ti-	.	.	2d/	-ti-
2GG/	-ti-	2E/	-am	.	.	2B-/	-am
=80-	=80-	=80-	=80-	=80-	=80-	=80-	=80-
2AA/	-am	2F/	pro	.	.	2A/	pro
*	*	*	*	*	*	*custos:c	*
2BB-/	pro	1G/	no-	.	.	2d/	no-
*	*	*	*	*	*	*xywh-#58:5849,2834,4520,829	*
!	!	!	!	!	!	!LO:LB:g=original	!
1C/	no-	.	.	.	.	1c\	-bis
.	.	2A/	-b(is)	.	.	.	.
=81-	=81-	=81-	=81-	=81-	=81-	=81-	=81-
2D/	-b(is)	2r	.	00r	.	2r	.
2r	.	1A\	ſub	.	.	2f\	ſub
1D\	ſub	.	.	.	.	2f\	pon-
.	.	2B-/	pon-	.	.	2d\	-ti-
=82-	=82-	=82-	=82-	=82-	=82-	=82-	=82-
2E/	po(n)-	2G/	-ti-	.	.	2g\	-o
2C/	-ti-	1A\	-o	.	.	2e\	.
2D/	-o	.	.	.	.	2.f\	pi-
2.A\	pi-	2F/	pi-	.	.	.	.
.	.	.	.	.	.	4e\	-la-
=83-	=83-	=83-	=83-	=83-	=83-	=83-	=83-
.	.	2G/	.	0r	.	2d/	-to
4B-\	-la-	.	.	.	.	.	.
*	*	*custos:A	*	*	*	*	*
1G\	-to	2B-/	.	.	.	2B-/	.
*	*	*xywh-#443:5912,1367,4456,893	*	*	*	*	*
!	!	!LO:LB:g=original	!	!	!	!	!
.	.	1A\	-la-	.	.	1c\	.
2F\	.	.	.	.	.	.	.
=84-	=84-	=84-	=84-	=84-	=84-	=84-	=84-
*custos:E	*	*	*	*	*	*	*
1G\	.	2G/	-to	2r	.	1B-/	.
.	.	2B-\	paſ-	1G/	paſ-	.	.
*xywh-#616:5612,532,4619,918	*	*	*	*	*	*	*
!LO:PB:g=original	!	!	!	!	!	!	!
2E\	paſ-	2c\	-sus	.	.	00r	.
2F\	-sus	2.d\	et	2A/	-sus	.	.
=85-	=85-	=85-	=85-	=85-	=85-	=85-	=85-
2.G\	.	.	.	1B-/	et	.	.
.	.	4c/	se-	.	.	.	.
.	.	4B-/	.	.	.	.	.
4F/	et	4A/	.	.	.	.	.
4E/	.	4G/	.	1c\	se-	.	.
4D/	.	4F/	.	.	.	.	.
4C/	.	4E/	.	.	.	.	.
4BB-/	.	4D/	.	.	.	.	.
=86-	=86-	=86-	=86-	=86-	=86-	=86-	=86-
4C/	se-	4E/	.	2.c/	-pul-	.	.
4BB-/	.	4D/	.	.	.	.	.
4AA/	-pul-	1G/	-pul-	.	.	.	.
4GG/	.	.	.	4B-/	.	.	.
2AA/	-tus	.	.	2c/	-tus	0r	.
2AA/	eſt	2F/	-tus	2c/	eſt	.	.
=87-	=87-	=87-	=87-	=87-	=87-	=87-	=87-
1GG/	.	1G/	eſt	1B-/	.	.	.
2r	.	2r	.	2r	.	2r	.
2BB-/	et	2D/	et	2G/	et	2B-/	et
=88-	=88-	=88-	=88-	=88-	=88-	=88-	=88-
2AA/	re-	2E/	re-	2A/	re-	2c/	re-
2D/	-ſur-	2F/	-ſur-	2B-/	-ſur-	2d/	-ſur-
2.C/	-re-	2G/	-re-	2c/	-re-	2e/	-re-
.	.	2E/	-xit	2A/	-xit	2c/	-xit
4AA/	.	.	.	.	.	.	.
=89-	=89-	=89-	=89-	=89-	=89-	=89-	=89-
2AA/	-xit	2r	.	2r	.	2r	.
2BB-/	ter-	2D/	ter-	2G/	ter-	2B-/	ter-
*	*	*custos:F	*	*	*	*	*
2AA/	-ci-	2E/	-ti-	2A/	-ci-	2c/	-ci-
*custos:C	*	*	*	*	*	*	*
*	*	*xywh-#443:5884,2060,4570,945	*	*	*	*	*
!	!	!LO:LB:g=original	!	!	!	!	!
2D/	-a	2F/	-a	2B-/	-a	2d/	-a
!LO:LB:g=original	!	!	!	!	!	!	!
=90-	=90-	=90-	=90-	=90-	=90-	=90-	=90-
*xywh-#616:5623,1359,4613,811	*	*	*	*	*	*	*
*	*	*	*	*	*	*custos:c	*
2.C/	di-	2G/	di-	2c/	di-	2e/	di-
*	*	*	*	*	*	*xywh-#59:1223,565,4340,842	*
!	!	!	!	!	!	!LO:PB:g=original	!
.	.	2E/	-e	2A/	-e	2c/	-e
4AA/	-e	.	.	.	.	.	.
*	*	*	*	*custos:G	*	*	*
2AA/	.	2r	.	2r	.	2r	.
*	*	*	*	*xywh-#249:1352,1323,4363,812	*	*	*
!	!	!	!	!LO:LB:g=original	!	!	!
2BB-/	s(e)-	2D/	se-	2G/	s(e)-	2B-/	se-
=91-	=91-	=91-	=91-	=91-	=91-	=91-	=91-
2AA/	-c(un)-	2E/	-(cun)-	2A/	-c(un)-	2c/	-(cun)-
2D/	-d(u)m	2F/	-d(u)m	2B-/	-d(u)m	2d/	-d(u)m
1C/	ſcri-	1G/	ſcri-	1c\	ſcrip-	1e\	Scri-
=92-	=92-	=92-	=92-	=92-	=92-	=92-	=92-
1F\	-ptu-	1A\	-ptu-	1d\	-tu-	1f\	-ptu-
!	!	!	!	!	!	!LO:SIC:v:o=1d\	!
1C/	-ras	1G/	-ras	1c\	-ras	1e\	-ras
=93-	=93-	=93-	=93-	=93-	=93-	=93-	=93-
1.F\	et	2r	.	2r	.	2r	.
.	.	2c\	et	2f\	et	2a\	et
.	.	2c\	a-	2f\	a-	2a\	a-
2F\	a-	2c\	-ſcen-	2f\	-ſcen-	2a\	-ſcen-
=94-	=94-	=94-	=94-	=94-	=94-	=94-	=94-
2F\	-ſcen-	2A/	-dit	2d\	-dit	2f\	-dit
2E\	-dit	2.B-/	in	2.e\	in	2.g\	in
2G\	in	.	.	.	.	.	.
.	.	4A/	.	4d/	.	4f\	.
4D/	ce-	1A\	ce-	1d\	ce-	1f\	ce-
4E/	-lum	.	.	.	.	.	.
=95-	=95-	=95-	=95-	=95-	=95-	=95-	=95-
4F/	.	.	.	.	.	.	.
4D/	.	.	.	.	.	.	.
2E/	.	2G/	-lum	2c/	-lu(m)	2e\	-lum
1D\	.	1A\	.	1d\	.	1f\	.
=96-	=96-	=96-	=96-	=96-	=96-	=96-	=96-
2D/	ſe-	2r	.	2r	.	2r	.
*custos:F	*	*	*	*	*	*	*
1F\	-det	2A/	ſe-	2d/	ſe-	2f\	ſe-
.	.	4c/	-det	4f\	-det	4a\	-det
.	.	4B-/	.	4e\	.	4g\	.
*xywh-#616:5639,2030,4641,890	*	*	*	*	*	*	*
!LO:LB:g=original	!	!	!	!	!	!	!
4F/	ad	4A/	.	4d/	.	4f\	.
*	*	*custos:A	*	*	*	*	*
4E/	.	4G/	.	4c/	.	4e\	.
!	!	!LO:LB:g=original	!	!	!	!	!
=97-	=97-	=97-	=97-	=97-	=97-	=97-	=97-
*	*	*xywh-#443:5815,2845,4542,910	*	*	*	*	*
*	*	*	*	*	*	*custos:f	*
4D/	.	2A/	.	2d/	.	2f\	.
4C/	.	.	.	.	.	.	.
*	*	*	*	*	*	*xywh-#59:1200,1339,4352,837	*
!	!	!	!	!	!	!LO:LB:g=original	!
*	*	*	*	*	*	*clefC2	*
2D/	.	2F/	ad	2B-/	ad	2f/	.
1C/	dex-	4G/	dex-	4c/	dex-	4e/	ad
.	.	4F/	.	4B-/	.	4d/	dex-
.	.	4E/	.	4A/	.	4c/	.
*	*	*	*	*custos:A	*	*	*
.	.	4D/	-te-	4G/	.	4B-/	.
!	!	!	!	!LO:LB:g=original	!	!	!
=98-	=98-	=98-	=98-	=98-	=98-	=98-	=98-
*	*	*	*	*xywh-#249:1329,1958,4392,903	*	*	*
2C/	-te-	2E/	-ra(m)	2A/	-te-	2c/	-te-
4GG/	-ram	1D/	.	1G/	-ra(m)	1B-/	-ra,
4AA/	.	.	.	.	.	.	.
4BB-/	.	.	.	.	.	.	.
4GG/	.	.	.	.	.	.	.
2AA/	p(at)-	2C/	pa-	2F/	p(at)-	2A/	p(at)-
=99-	=99-	=99-	=99-	=99-	=99-	=99-	=99-
1GG/	-ris	1D/	-tris	1G/	-ris	1B-/	-ris
1BB-/	et	2r	.	2r	.	2r	.
.	.	2D/	et	2G/	et	2B-/	et
=100-	=100-	=100-	=100-	=100-	=100-	=100-	=100-
1AA/	i-	1E/	i-	1A/	i-	1c/	i-
1AA/	-te-	1C/	-te-	1F/	-te-	1A/	-te-
=101-	=101-	=101-	=101-	=101-	=101-	=101-	=101-
1GG/	-rum	1D/	-rum	1G/	-rum	1B-/	-rum
1BB-/	ven-	2r	.	2r	.	2r	.
.	.	2D/	ven-	2G/	ven-	2B-/	ven-
=102-	=102-	=102-	=102-	=102-	=102-	=102-	=102-
1AA/	-tu-	1E/	-tu-	1A/	-tu-	1c/	-tu-
1AA/	-r(us)	1C/	-rus	1F/	-r(us)	1A/	-r(us)
=103-	=103-	=103-	=103-	=103-	=103-	=103-	=103-
1GG/	eſt	1D/	eſt	1G/	eſt	1B-/	eſt
1BB-/	cu(m)	2r	.	2r	.	2r	.
.	.	2D/	cum	2G/	cum	2B-/	cu(m)
=104-	=104-	=104-	=104-	=104-	=104-	=104-	=104-
1AA/	glo-	1E/	glo-	1A/	gl(o-	1c/	glo-
*custos:C	*	*	*	*	*	*	*
1D\	-ri-	1F/	-ri-	1B-/	-r)i-	1d/	-ri-
!LO:LB:g=original	!	!	!	!	!	!	!
=105-	=105-	=105-	=105-	=105-	=105-	=105-	=105-
*xywh-#616:5668,2779,4647,1013	*	*	*	*	*	*	*
1C/	-a	1G/	-a	1c\	-a	1e\	-a
1E\	iu-	2r	.	2r	.	2r	.
*	*	*custos:A	*	*	*	*custos:f	*
.	.	2G/	iu-	2c/	iu-	2e/	iu-
!	!	!LO:PB:g=original	!	!	!	!LO:LB:g=original	!
=106-	=106-	=106-	=106-	=106-	=106-	=106-	=106-
*	*	*xywh-#444:1373,557,4301,962	*	*	*	*xywh-#59:1154,2078,4439,964	*
1D\	-di-	1A\	-di-	1d\	-di-	1f\	-di-
1G\	-ca-	1B-\	-ca-	1e\	-ca-	1g\	-ca-
=107-	=107-	=107-	=107-	=107-	=107-	=107-	=107-
1F\	-re	1c\	-re	1f\	-re	1a\	-re
1A\	vi-	2r	.	2r	.	2r	.
.	.	2c\	vi-	2f\	vi-	2a\	vi-
=108-	=108-	=108-	=108-	=108-	=108-	=108-	=108-
*	*	*	*	*custos:e	*	*	*
1G\	-vos	1d\	-uos	1g\	-vos	1b-\	-vos
*	*	*	*	*xywh-#249:1363,2822,4375,966	*	*	*
!	!	!	!	!LO:LB:g=original	!	!	!
1G\	et	1B-\	et	1e\	et	1g\	et
=109-	=109-	=109-	=109-	=109-	=109-	=109-	=109-
2.F\	mor-	1.c\	mor-	1.f\	mor-	1.a\	mor-
4G\	.	.	.	.	.	.	.
2A\	-tu-	.	.	.	.	.	.
2D/	-os	2A/	-tu-	2d\	-tu-	2f/	-tu-
=110-	=110-	=110-	=110-	=110-	=110-	=110-	=110-
1D\	.	1A\	-os	1d\	-os	1f\	-os
1F\	Cu-	2r	.	2r	.	2r	.
.	.	2A/	Cu-	2d\	Cu-	2f\	cu-
=111-	=111-	=111-	=111-	=111-	=111-	=111-	=111-
1E-X\	-ius	1B-\	-ius	1e-X\	-ius	1g\	-ius
1E-\	re-	1G/	re-	1c\	re-	1e\	re-
=112-	=112-	=112-	=112-	=112-	=112-	=112-	=112-
1D\	-gni	1A\	-gni	1d\	-gni	1f\	-gni
1D\	non	2r	.	2r	.	2r	.
.	.	2F/	non	2B-/	no(n)	2d/	no(n)
=113-	=113-	=113-	=113-	=113-	=113-	=113-	=113-
1C/	e-	1G/	e-	1c\	e-	1e\	e-
1C/	-rit	1E/	-rit	1A/	-rit	1c/	-rit
=114-	=114-	=114-	=114-	=114-	=114-	=114-	=114-
2.BB-/	fi-	1.F/	fi-	1.B-/	fi-	1.d/	fi-
4C/	-nis	.	.	.	.	.	.
2D/	.	.	.	.	.	.	.
2GG/	.	2D/	-nis	2G/	-nis	2B-/	-nis
=115-	=115-	=115-	=115-	=115-	=115-	=115-	=115-
*custos:G	*	*custos:d	*	*	*	*custos:d	*
0GG\l	.	0D\l	.	0G\l	.	0B-\l	.
!LO:PB:g=original	!	!LO:LB:g=original	!	!	!	!LO:LB:g=original	!
=116-	=116-	=116-	=116-	=116-	=116-	=116-	=116-
*xywh-#617:1120,636,4472,844	*	*xywh-#444:1298,1324,4376,830	*	*	*	*xywh-#59:1235,2765,4369,958	*
1r	.	1d\	et	0r	.	00r	.
1G\	et	1e\	in	.	.	.	.
=117-	=117-	=117-	=117-	=117-	=117-	=117-	=117-
1A\	in	1c\	Sp(i-	1r	.	.	.
1F\	Sp(i-	1d\	-ri-	1A/	et	.	.
=118-	=118-	=118-	=118-	=118-	=118-	=118-	=118-
1G\	-ri-	0e\	-tu)m	1B-/	in	00r	.
0A\	-tu)m	.	.	2.c/	Sp(i-	.	.
.	.	.	.	4c/	-ri-	.	.
=119-	=119-	=119-	=119-	=119-	=119-	=119-	=119-
.	.	1.f\	ſanc-	1c\	-tu)m	.	.
1.B-\	San-	.	.	2r	.	.	.
.	.	2e\	-tum	1G/	ſanc-	.	.
=120-	=120-	=120-	=120-	=120-	=120-	=120-	=120-
.	.	2d\	.	.	.	00r	.
*	*	*	*	*custos:B-	*	*	*
2A\	-ctu(m)	2c\	do-	2A/	-tu(m)	.	.
*	*	*	*	*xywh-#249:5984,648,4397,800	*	*	*
!	!	!	!	!LO:PB:g=original	!	!	!
2G\	do-	1.d\	-mi-	2B-/	do-	.	.
2F\	-mi-	.	.	2A/	-mi-	.	.
=121-	=121-	=121-	=121-	=121-	=121-	=121-	=121-
1.G\	-nu(m)	.	.	1.B-/	-nu(m)	.	.
.	.	2c/	-nu(m)	.	.	.	.
.	.	2B-/	et	.	.	.	.
2F\	et	2A/	vi-	1c\	et	.	.
=122-	=122-	=122-	=122-	=122-	=122-	=122-	=122-
2Eny/	vi-	2G/	-ui-	.	.	00r	.
2D/	-ui-	2F/	-fi-	2d\	vi-	.	.
2C/	-fi-	1G/	-can-	2eny\	-ui-	.	.
2BB-/	-can-	.	.	2d\	-fi-	.	.
=123-	=123-	=123-	=123-	=123-	=123-	=123-	=123-
1C/	-tem	1A\	-tem	1c\	-can-	.	.
1D\	.	2r	.	1A/	-tem	.	.
.	.	2F/	qui	.	.	.	.
=124-	=124-	=124-	=124-	=124-	=124-	=124-	=124-
2r	.	2G/	ex	2r	.	00r	.
2BB-/	qui	2B-/	p(at)-	2d/	qui	.	.
2C/	ex	2A/	-re	2c/	ex	.	.
2E/	p(at)-	2G/	fi-	2B-/	p(at)-	.	.
=125-	=125-	=125-	=125-	=125-	=125-	=125-	=125-
*custos:C	*	*custos:E	*	*	*	*	*
2D/	-re	2F/	-li-	2B-/	-re	.	.
*xywh-#617:1137,1391,4562,828	*	*xywh-#444:1396,2086,4307,830	*	*	*	*	*
!LO:LB:g=original	!	!LO:LB:g=original	!	!	!	!	!
2C/	fi-	2E/	-o-	2c/	fi-	.	.
2BB-/	-li-	2D/	-q(ue)	2d/	-li-	.	.
2AA/	-o-	4E/	pro-	2c/	-o-	.	.
.	.	4D/	.	.	.	.	.
=126-	=126-	=126-	=126-	=126-	=126-	=126-	=126-
2GG/	-q(ue)	4E/	-ce-	2.B-/	-q(ue)	0r	.
.	.	4D/	-dit	.	.	.	.
2BB-/	pro-	1G/	.	.	.	.	.
.	.	.	.	4d/	pro-	.	.
1AA/	-ce-	.	.	1c\	-ce-	.	.
.	.	2F/	.	.	.	.	.
=127-	=127-	=127-	=127-	=127-	=127-	=127-	=127-
2GG/	-dit	2G/	.	2B-/	-dit	2r	.
2D/	qui	2F/	qui	2B-/	qui	2d/	qui
2D/	cum	2F/	cu(m)	2B-/	cu(m)	2d/	cum
2D/	p(at)-	2F/	p(at)-	2B-/	p(at)-	2d/	p(at)-
=128-	=128-	=128-	=128-	=128-	=128-	=128-	=128-
1.C/	-re	1.G/	-re	1.c\	-re	1e\	-re
.	.	.	.	.	.	2r	.
*	*	*	*	*custos:A	*	*	*
2D/	et	2F/	et	2B-/	et	2d/	et
!	!	!	!	!LO:LB:g=original	!	!	!
=129-	=129-	=129-	=129-	=129-	=129-	=129-	=129-
*	*	*	*	*xywh-#249:5972,1374,4489,806	*	*	*
1AA/	fi-	1E/	fi-	1A/	fi-	1c/	fi-
1BB-/	-li-	1D/	-li-	1G/	-li-	1B-/	-li-
=130-	=130-	=130-	=130-	=130-	=130-	=130-	=130-
2AA/	-o	2E/	-o	2A/	-o	2c/	-o
2D/	ſi-	2F/	ſi-	2B-/	si-	2d/	ſi-
2C/	-mul	2G/	-mul	2c/	-mul	2e/	-mul
1F\	a-	1A\	a-	1d\	a-	1f\	a-
=131-	=131-	=131-	=131-	=131-	=131-	=131-	=131-
.	.	.	.	.	.	.	.
2D/	-do-	2A/	-ro-	2d/	-do-	2f/	-do-
1F\	-ra-	1A\	-ra-	1d\	-ra-	1f\	-ra-
=132-	=132-	=132-	=132-	=132-	=132-	=132-	=132-
1C/	-t(ur)	1G/	-t(ur)	1c\	-tur	1e\	-tur
1.F\	et	2r	.	2r	.	2r	.
.	.	1A\	et	1d\	et	1f\	et
=133-	=133-	=133-	=133-	=133-	=133-	=133-	=133-
.	.	.	.	.	.	.	.
*custos:D	*	*custos:F	*	*	*	*	*
2C/	con-	2G/	co(n)-	2c/	con-	2e/	con-
*xywh-#617:1115,2118,4630,878	*	*xywh-#444:1413,2813,4295,859	*	*	*	*	*
!LO:LB:g=original	!	!LO:LB:g=original	!	!	!	!	!
2D/	-glo-	2F/	-glo-	2B-/	-glo-	2d/	-glo-
2AA/	-ri-	2E/	-ri-	2A/	-ri-	2c/	-ri-
=134-	=134-	=134-	=134-	=134-	=134-	=134-	=134-
*	*	*	*	*	*	*custos:A	*
2BB-/	-fi-	1D/	-fi-	1G/	-fi-	1B-/	-fi-
2GG/	-ca-	.	.	.	.	.	.
*	*	*	*	*	*	*xywh-#59:5916,583,4375,906	*
!	!	!	!	!	!	!LO:PB:g=original	!
1AA/	-tur	1C/	-ca-	1F/	-ca-	1A/	-ca-
=135-	=135-	=135-	=135-	=135-	=135-	=135-	=135-
0GG/	.	1D/	-tur	0G/	-tur	1B-/	-tur
.	.	1r	.	.	.	2r	.
.	.	.	.	.	.	2G/	qui
=136-	=136-	=136-	=136-	=136-	=136-	=136-	=136-
00r	.	2r	.	2r	.	2A/	.
.	.	2D/	qui	2F/	qui	2B-/	lo-
.	.	2E/	lo-	2G/	lo-	2c/	-cu-
.	.	2F/	-cu-	2A/	-cu-	2d/	-tus
=137-	=137-	=137-	=137-	=137-	=137-	=137-	=137-
.	.	4G/	-tus	1.B-/	-tus	4B-/	eſt
.	.	4A/	.	.	.	4c/	.
.	.	4B-/	.	.	.	4d/	per
.	.	4c/	.	.	.	4e/	.
.	.	2d\	.	.	.	4f/	.
.	.	.	.	.	.	4g/	.
.	.	2c\	eſt	2c/	eſt	2.a\	.
=138-	=138-	=138-	=138-	=138-	=138-	=138-	=138-
00r	.	2B-/	per	2d\	per	.	.
.	.	.	.	.	.	4g/	.
*	*	*	*	*custos:c	*	*	*
.	.	2G/	p(ro)-	2e\	pro-	1g\	pro-
*	*	*	*	*xywh-#249:5944,2118,4443,789	*	*	*
!	!	!	!	!LO:LB:g=original	!	!	!
.	.	1A\	-p(he-	1c\	-phe-	.	.
.	.	.	.	.	.	2f\	-phe-
=139-	=139-	=139-	=139-	=139-	=139-	=139-	=139-
.	.	2G/	-t)as	2d/	-tas	2g\	-tas
.	.	2G/	et	2d/	et	2r	.
.	.	2B-/	v-	1d\	v-	2G/	et
.	.	2G/	-na(m)	.	.	2B-/	v-
=140-	=140-	=140-	=140-	=140-	=140-	=140-	=140-
00r	.	2.B-\	San-	2d/	-na(m)	2G/	-na(m)
.	.	.	.	2.G/	ſan-	2.B-/	.
.	.	4c\	.	.	.	.	.
*	*	*custos:G	*	*	*	*	*
.	.	2d\	.	.	.	.	.
.	.	.	.	4A/	.	4c/	san-
*	*	*xywh-#444:5937,539,4467,950	*	*	*	*	*
!	!	!LO:PB:g=original	!	!	!	!	!
.	.	2G/	-cta(m)	2B-/	.	2d/	.
=141-	=141-	=141-	=141-	=141-	=141-	=141-	=141-
*	*	*	*	*	*	*custos:d	*
.	.	2r	.	2B-/	-cta(m)	2G/	-cta(m)
*	*	*	*	*	*	*xywh-#59:5824,1368,4508,854	*
!	!	!	!	!	!	!LO:LB:g=original	!
.	.	2B-/	ca-	2G/	ca-	2d/	ca-
.	.	2A/	-to-	2c/	-to-	2e/	-to-
.	.	2A/	-li-	2c/	-li-	2f/	-li-
=142-	=142-	=142-	=142-	=142-	=142-	=142-	=142-
2r	.	1G/	-cam	1B-/	-ca(m)	1g\	-ca(m)
2G\	et	.	.	.	.	.	.
2.B-\	a-	2r	.	2r	.	1b-\	et
.	.	2d\	et	2g\	et	.	.
4B-\	-po-	.	.	.	.	.	.
=143-	=143-	=143-	=143-	=143-	=143-	=143-	=143-
2F\	-ſto-	2c\	a-	2f\	a-	2a\	a-
2G\	-li-	2B-/	-po-	2e\	-po-	2g/	-po-
2D/	-cam	2A/	-ſto-	2d\	-sto-	2f/	-ſto-
2E/	ec-	2G/	-li-	2c/	-li-	2e/	-li-
=144-	=144-	=144-	=144-	=144-	=144-	=144-	=144-
!LO:TX:t=P:problem=poprawka wysokości	!	!	!	!	!	!	!
!LO:SIC:v:o=2C/	!	!	!	!	!	!	!
2BB-/	-cle	2F/	-cam	2B-/	-cam	2d/	-cam
2C/	.	2E/	ec-	2A/	ec-	2c/	ec-
1GG/	.	1D/	-cle-	1G/	-cle-	1B-/	-cle-
=145-	=145-	=145-	=145-	=145-	=145-	=145-	=145-
1AA/	ſi-	1C/	-ſi-	1F/	-ſi-	1A/	-ſi-
1GG/	-a(m)	1D/	-am,	1G/	-am	1B-/	-am
=146-	=146-	=146-	=146-	=146-	=146-	=146-	=146-
1GG/	Con-	1G/	co(n)-	2r	.	2r	.
*	*	*	*	*custos:A	*	*	*
.	.	.	.	2B-/	Con-	1d/	Con-
*	*	*	*	*xywh-#249:5892,2804,4460,937	*	*	*
!	!	!	!	!LO:LB:g=original	!	!	!
2AA/	-fi-	2F/	-fi-	2A/	-fi-	.	.
*custos:GG	*	*	*	*	*	*	*
2AA/	-te-	2E/	-te-	2A/	-te-	2c/	-fi-
!LO:LB:g=original	!	!	!	!	!	!	!
=147-	=147-	=147-	=147-	=147-	=147-	=147-	=147-
*xywh-#617:1250,2861,4483,918	*	*	*	*	*	*	*
4GG/	-or	2.G/	-or	2.B-/	-or	2B-/	-te-
4AA/	.	.	.	.	.	.	.
4BB-/	.	.	.	.	.	2.d/	-or
4C/	.	4F/	.	4A/	.	.	.
4D/	.	2D/	.	1F/	.	.	.
4E/	.	.	.	.	.	4c/	.
1F\	.	2r	.	.	.	2A/	.
=148-	=148-	=148-	=148-	=148-	=148-	=148-	=148-
.	.	1F/	v-	2r	.	2r	.
2FF/	v-	.	.	2A/	u-	1c/	v-
2GG/	-nu(m)	2E/	-nu(m)	2G/	-nu(m)	.	.
*	*	*custos:F	*	*	*	*	*
2GG/	bap-	2D/	ba-	2G/	bap-	2B-/	-nu(m)
!	!	!LO:LB:g=original	!	!	!	!	!
=149-	=149-	=149-	=149-	=149-	=149-	=149-	=149-
*	*	*xywh-#444:5967,1341,4542,973	*	*	*	*	*
4FF/	-tis-	2.F/	-ptis-	1A/	-t(is-	2A/	.
4GG/	.	.	.	.	.	.	.
4AA/	-ma	.	.	.	.	2.c/	bap-
4BB-/	.	4E/	-ma	.	.	.	.
1C/	.	2C/	.	1G/	-m)a	.	.
*	*	*	*	*	*	*custos:G	*
.	.	.	.	.	.	4B-/	-ti-
*	*	*	*	*	*	*xywh-#59:5864,1968,4364,981	*
!	!	!	!	!	!	!LO:LB:g=original	!
.	.	2r	.	.	.	2G/	-sma
=150-	=150-	=150-	=150-	=150-	=150-	=150-	=150-
2r	.	1G/	in	2r	.	2r	.
2GG/	in	.	.	1d\	in	2B-/	in
2AA/	re-	2F/	re-	.	.	2A/	re-
2AA/	-miſ-	2E/	-miſ-	2c/	re-	2A/	-miſ-
=151-	=151-	=151-	=151-	=151-	=151-	=151-	=151-
2GG/	-ſi-	2G/	-ſi-	2B-/	-miſ-	2B-/	-ſi-
2BB-/	-o-	2F/	-o-	2d/	-ſi-	2B-/	-o-
2C/	-nem	2E/	-nem	2c/	-o-	1G/	-nem
2.GG/	pec-	2.G/	.	2B-/	-nem	.	.
=152-	=152-	=152-	=152-	=152-	=152-	=152-	=152-
.	.	.	.	2.d/	pec-	0r	.
4AA/	.	8F/L	pec-	.	.	.	.
.	.	8E/J	.	.	.	.	.
4BB-/	.	4D/	.	.	.	.	.
4C/	.	4E/	.	4c/	.	.	.
*custos:AA	*	*	*	*	*	*	*
2D/	.	4F/	.	4A/	.	.	.
.	.	4G/	.	4B-/	.	.	.
*xywh-#617:5722,473,4545,946	*	*	*	*	*	*	*
!LO:PB:g=original	!	!	!	!	!	!	!
1AA/	-ca-	2.A/	.	2.c/	.	.	.
=153-	=153-	=153-	=153-	=153-	=153-	=153-	=153-
.	.	.	.	.	.	1r	.
.	.	4G/	-ca-	4B-/	.	.	.
2BB-/	-to-	1G/	-to-	2G/	-ca-	.	.
*	*	*	*	*custos:G	*	*	*
2C/	-ru(m)	.	.	1A/	-to-	2r	.
2D/	.	2F/	-ru(m)	.	.	2d/	p(ec)-
!	!	!	!	!LO:PB:g=original	!	!	!
=154-	=154-	=154-	=154-	=154-	=154-	=154-	=154-
*	*	*	*	*xywh-#250:1291,558,4356,926	*	*	*
2BB-/	.	0G/	.	1G/	-rum	2d/	-c(a)-
2C/	.	.	.	.	.	2e/	-to-
1GG/	.	.	.	2r	.	2d/	-ru(m)
.	.	.	.	2g\	et	2b-\	et
=155-	=155-	=155-	=155-	=155-	=155-	=155-	=155-
00r	.	00r	.	2f\	ex-	2a\	ex-
.	.	.	.	2.g\	-pec-	2.b-\	-pec-
.	.	.	.	4f\	-to	4a\	-to
.	.	.	.	4g\	.	4b-\	.
.	.	.	.	4e\	.	4g\	.
=156-	=156-	=156-	=156-	=156-	=156-	=156-	=156-
.	.	.	.	1f\	.	1a\	.
.	.	.	.	2r	.	2r	.
.	.	.	.	2g\	re-	2b-\	re-
=157-	=157-	=157-	=157-	=157-	=157-	=157-	=157-
00r	.	00r	.	2f\	-ſur-	2a\	-ſur-
.	.	.	.	2g\	-rec-	2b-\	-rec-
*	*	*	*	*	*	*custos:b-	*
.	.	.	.	2f\	-ti-	2a\	-ti-
*	*	*	*	*	*	*xywh-#59:5812,2805,4669,871	*
!	!	!	!	!	!	!LO:LB:g=original	!
.	.	.	.	2.g\	-o-	2.b-\	-o-
=158-	=158-	=158-	=158-	=158-	=158-	=158-	=158-
.	.	.	.	.	.	.	.
.	.	.	.	4f\	-nem	4a\	-ne(m)
.	.	.	.	4g\	.	4b-\	.
.	.	.	.	4e\	.	4g\	.
.	.	.	.	1f\	.	1a\	.
=159-	=159-	=159-	=159-	=159-	=159-	=159-	=159-
2r	.	2r	.	2r	.	2r	.
1G\	mor-	1d\	mor-	1g\	mor-	1b-\	mor-
2G\	-tu-	2d\	-tu-	2g\	-tu-	2b-\	-tu-
=160-	=160-	=160-	=160-	=160-	=160-	=160-	=160-
1B-\	-o-	1d\	-o-	1g\	-o-	1b-\	-o-
*	*	*custos:B-	*	*custos:B-	*	*	*
1F\l	-ru(m)	1c\l	-ru(m)	1f\l	-ru(m)	1a\l	-ru(m)
*clefF3	*	*	*	*	*	*clefC3	*
!	!	!LO:LB:g=original	!	!LO:LB:g=original	!	!	!
=161-	=161-	=161-	=161-	=161-	=161-	=161-	=161-
*	*	*xywh-#444:5972,2103,4416,870	*	*xywh-#250:1234,1332,4407,836	*	*	*
*M3/1	*	*M3/1	*	*M3/1	*	*M3/1	*
1B-\	et	00.r	.	0.r	.	00.r	.
1B-\	vi-	.	.	.	.	.	.
1c\	-tam	.	.	.	.	.	.
=162-	=162-	=162-	=162-	=162-	=162-	=162-	=162-
1.d\	ven-	.	.	1B-/	et	.	.
.	.	.	.	1B-/	vi-	.	.
4c\	.	.	.	.	.	.	.
4B-\	.	.	.	.	.	.	.
*custos:G	*	*	*	*	*	*	*
1A\	.	.	.	1c\	-tam	.	.
!LO:LB:g=original	!	!	!	!	!	!	!
=163-	=163-	=163-	=163-	=163-	=163-	=163-	=163-
*xywh-#617:5683,1346,4590,844	*	*	*	*	*	*	*
1B-\	-tu-	1B-\	et	1.d\	.	00.r	.
1G\	-ri	1B-\	vi-	.	.	.	.
.	.	.	.	4c/	ven-	.	.
.	.	.	.	4B-/	.	.	.
1F\	.	1c\	-tam	1A/	-tu-	.	.
=164-	=164-	=164-	=164-	=164-	=164-	=164-	=164-
1B-\	ſe-	1d\	ven-	1B-/	-ri	.	.
1B-\	-cu-	2d\	-tu-	1G/	.	.	.
.	.	4c\	-ri	.	.	.	.
.	.	4B-\	.	.	.	.	.
1c\	-li	1A\	.	1F/	.	.	.
=165-	=165-	=165-	=165-	=165-	=165-	=165-	=165-
1.d\	A-	0B-\	.	1B-/	.	1d\	et
.	.	.	.	1B-/	se-	1d\	vi-
4c\	.	.	.	.	.	.	.
4B-\	.	.	.	.	.	.	.
1A\	.	1r	.	1c\	-cu-	1e\	.
=166-	=166-	=166-	=166-	=166-	=166-	=166-	=166-
1.D/	.	1.F/	Se-	1.d\	-li	1.f\	-ta(m)
2E/	.	2G/	-cu-	2c/	.	2e\	.
1F\	.	1A\	-li	1A/	.	1c\	ven-
=167-	=167-	=167-	=167-	=167-	=167-	=167-	=167-
1.BB-/	.	1.D/	.	1B-/	a-	1d\	.
.	.	.	.	1G/	.	1B-/	-tu-
2C/	.	2E/	.	.	.	.	.
1D/	.	1F/	.	1F/	.	1A/	-ri
=168-	=168-	=168-	=168-	=168-	=168-	=168-	=168-
1GG/	.	0G/	.	0B-/	.	0d\	se-
1G\	.	.	.	.	.	.	.
*	*	*	*	*custos:d	*	*	*
!	!	!LO:TX:t=P:problem=punctum divisionis	!	!	!	!LO:TX:t=P:problem=punctum divisionis	!
1E/	.	1G/	a	1c\	.	1e\	.
!	!	!	!	!LO:LB:g=original	!	!	!
=169-	=169-	=169-	=169-	=169-	=169-	=169-	=169-
*	*	*	*	*xywh-#250:1268,2145,4181,853	*	*	*
1D/	.	1A\	.	1d\	.	1f\	-cu-
1G\	.	0G/	.	1B-/	.	0g\	.
*custos:D	*	*	*	*	*	*	*
1E/	.	.	.	1c\	.	.	.
!LO:LB:g=original	!	!	!	!	!	!	!
*clefF4	*	*	*	*	*	*	*
=170-	=170-	=170-	=170-	=170-	=170-	=170-	=170-
*xywh-#617:5773,2067,4230,878	*	*	*	*	*	*	*
1D\	.	1A\	.	1d\	.	1f\	-li
*	*	*custos:A	*	*	*	*	*
1G\	.	0G/	.	1B-/	.	0g\	.
1E\	.	.	.	1c\	.	.	.
!	!	!LO:LB:g=original	!	!	!	!	!
=171-	=171-	=171-	=171-	=171-	=171-	=171-	=171-
*	*	*xywh-#444:5967,2853,4244,756	*	*	*	*	*
1D\	.	1A\	.	1.d\	.	1.f\	A-
1BB-/	.	0D/	.	.	.	.	.
.	.	.	.	2c/	.	2e/	.
1D\	.	.	.	2B-/	.	2d/	.
.	.	.	.	2A/	.	2c/	-men
=172-	=172-	=172-	=172-	=172-	=172-	=172-	=172-
*	*	*col	*	*	*	*lig	*
1GG/	.	1G/	.	1B-/	.	1d\	.
1.C/	.	1E/	.	1.c\	.	1.e\	.
.	.	0G/	.	.	.	.	.
*	*	*	*	*	*	*Xlig	*
!	!	!	!	!	!	!LO:TX:t=P:problem=dalszej partii nie ma (pewnie była na kraju karty, który - jak widać po Kyrie - jest obcięty przy oprawianiu by wyrównać do reszty kart). Pani dr Zwolińska w wersji publikowanej uzupełniła to w taki sposób, jak tu ukrytymi nutami. 	!
2D/	.	.	.	2B-/	.	2ryy	.
=173-	=173-	=173-	=173-	=173-	=173-	=173-	=173-
1E\	.	.	.	1c\	.	0.ryy	.
0D\	-men	0A\	.	0d\	.	.	.
.	.	.	.	.	.	.	.
*	*	*Xcol	*	*	*	*	*
=174-	=174-	=174-	=174-	=174-	=174-	=174-	=174-
1BB-/	.	[0.G\l	.	1d\	.	0.ryy	.
0C/	.	.	.	0e\	-men:	.	.
=175-	=175-	=175-	=175-	=175-	=175-	=175-	=175-
0.GG\l	.	0.G/]	.	0.d\l	.	0.ryy	.
==	==	==	==	==	==	==	==
*-	*-	*-	*-	*-	*-	*-	*-
!!!system-decoration: [(*)]
!!!RDF**kern: l = terminal long
!!!ENC: Mateusz Solarz
!!!END: 2022-02-18
!!!EED: Andrzej Borzym
!!!EEV: 2022-02-22
!!!ENC-iiif: Antoni Szymański
!!!END-iiif: 2022-09-03
